X: 21714
M: 6/8
L: 1/8
K: Gm
(G>A)B/c/ (d>c)B/A/ |1 G3 d2 :|2 G3 d2B |]\
!p!B>cB B2B | c>dc c2c |
d>=ef g>f_e | d3 f2B |\
d>cB A>G^F | G3 d2 |]


